!!!!SEGMENT:Shojyo.krn
!!!OTL: 猩々
!!!OPR:Eiga Banso Kyokusyu,jidai-geki,kouhen
!!!YOY:1928
!!!ONB:Daigekito,Tsuiseki
**kern
*clefG2
*k[f#c#]
*D:
*M2/4
=1
8bbL
16ff#L
16ff#JJ
16ff#LL
16ff#
16ff#
16ff#JJ
=2
16bLL
16ff#
16ff#
16ff#JJ
16ff#LL
16ff#JJ
8r
=3
8bbL
16ff#L
16ff#JJ
16ff#LL
16ff#
16ff#
16ff#JJ
=4
16bLL
16ff#
16ff#
16ff#JJ
16ff#LL
16ff#JJ
8r
=5
16aaLL
16aa
16bb
16bbJJ
16aaLL
16aa
16bb
16bbJJ
=6
16ff#LL
16bb
16ff#
16bbJJ
16ff#LL
16bbJJ
8r
=7
16aaLL
16aa
16bb
16bbJJ
16aaLL
16aa
16bb
16bbJJ
=8
16ff#LL
16bb
16ff#
16bbJJ
16ff#LL
16bbJJ
8r
=9
16cc#LL 16ccc#
16cc#J 16ccc#
8cc#J 8ccc#
16ggLL
16ggJ
8ggJ
=10
16ccc#LL
16ccc#J
8ccc#J
16ggLL
16ggJ
8ggJ
=11
16bbLL
16gg
16gg
16ff#JJ
16ddLL
16cc#JJ
8r
=12
16f#LL
16ff#
16f#
16ff#JJ
16f#LL
16ff#JJ
8r
=:|!
*-
!!!ENC: Yukiko Yoden
!!!END: 2023/06/10
